src/standard/industry.svg

<svg xmlns="http://www.w3.org/2000/svg" viewBox="0 0 36 36">
  <path d="M31 9.38h-2.38V5a.61.61 0 0 0-.62-.62h-3a.61.61 0 0 0-.62.62v4.38h-1.76V5a.61.61 0 0 0-.62-.62h-3a.61.61 0 0 0-.62.62v4.38H16a.61.61 0 0 0-.62.62v7.38h-4.76V6a.61.61 0 0 0-.62-.62H7a.61.61 0 0 0-.62.62v11.38H5a.61.61 0 0 0-.62.62v13a.61.61 0 0 0 .62.62h26a.61.61 0 0 0 .62-.62V10a.61.61 0 0 0-.62-.62Zm-5.38-3.76h1.76v3.76h-1.76Zm-6 0h1.76v3.76h-1.76Zm10.76 5v6.76H16.62v-6.76Zm-22.76-4h1.76v10.76H7.62Zm15 23.76v-5.76h2.76v5.76Zm7.76-11.76v11.76h-3.76V24a.61.61 0 0 0-.62-.62h-4a.61.61 0 0 0-.62.62v6.38H5.62V18.62ZM7 4.62h3a.62.62 0 1 0 0-1.24H7a.62.62 0 0 0 0 1.24Z"/>
</svg>

<svg id="f5c763fe-8e2f-47dd-b938-8c377cfe401e" data-name="Icon" xmlns="http://www.w3.org/2000/svg" viewBox="0 0 36 36">
  <title>Industry icon - Black</title>
<desc>factory, industrial, large, smokestack, production, warehouse, manufacturing, fabrication, buildings and industries</desc>
<metadata><?xpacket begin="﻿" id="W5M0MpCehiHzreSzNTczkc9d"?>
<x:xmpmeta xmlns:x="adobe:ns:meta/" x:xmptk="Adobe XMP Core 8.0-c001 1.000000, 0000/00/00-00:00:00        ">
   <rdf:RDF xmlns:rdf="http://www.w3.org/1999/02/22-rdf-syntax-ns#">
      <rdf:Description rdf:about=""
            xmlns:xmp="http://ns.adobe.com/xap/1.0/"
            xmlns:dc="http://purl.org/dc/elements/1.1/"
            xmlns:cq="http://www.day.com/jcr/cq/1.0"
            xmlns:tiff="http://ns.adobe.com/tiff/1.0/">
         <xmp:rhcc-effective-on>2023-12-08T17:47:30.382Z</xmp:rhcc-effective-on>
         <xmp:rhcc-metadata-complete-moderator>pending</xmp:rhcc-metadata-complete-moderator>
         <xmp:rhcc-translation-id>TRA941c69bf-4527-4ed7-8ff3-7431761fc13c</xmp:rhcc-translation-id>
         <xmp:brand-content-type>Icon</xmp:brand-content-type>
         <xmp:CreateDate>2023-12-08T17:47:30.382Z</xmp:CreateDate>
         <xmp:rhcc-effective-on-set-on-upload>true</xmp:rhcc-effective-on-set-on-upload>
         <xmp:rhcc-metadata-complete-uploader>pending</xmp:rhcc-metadata-complete-uploader>
         <xmp:rhcc-file-last-modified>2023-12-08T17:48:04.197Z</xmp:rhcc-file-last-modified>
         <xmp:rhcc-audience>rhcc-audience:internal</xmp:rhcc-audience>
         <xmp:rhcc-rights-restricted>no</xmp:rhcc-rights-restricted>
         <xmp:brand-content-subtype>Icon</xmp:brand-content-subtype>
         <xmp:rhcc-derivative-id>DER941c69bf-4527-4ed7-8ff3-7431761fc13c</xmp:rhcc-derivative-id>
         <xmp:brand-logo-color>Black</xmp:brand-logo-color>
         <xmp:rhcc-notify-portal-subscribers-on-change>yes</xmp:rhcc-notify-portal-subscribers-on-change>
         <dc:format>image/svg+xml</dc:format>
         <dc:modified>2024-02-09T20:24:31.049Z</dc:modified>
         <dc:title>
            <rdf:Alt>
               <rdf:li xml:lang="x-default">Industry icon - Black</rdf:li>
            </rdf:Alt>
         </dc:title>
         <dc:description>
            <rdf:Alt>
               <rdf:li xml:lang="x-default">factory, industrial, large, smokestack, production, warehouse, manufacturing, fabrication, buildings and industries</rdf:li>
            </rdf:Alt>
         </dc:description>
         <cq:lastReplicationAction_scene7>Activate</cq:lastReplicationAction_scene7>
         <cq:lastReplicationAction_publish>Activate</cq:lastReplicationAction_publish>
         <cq:lastReplicated_publish>2024-02-09T22:07:12.166Z</cq:lastReplicated_publish>
         <cq:lastReplicatedBy>workflow-process-service</cq:lastReplicatedBy>
         <cq:lastReplicationAction>Activate</cq:lastReplicationAction>
         <cq:lastReplicatedBy_publish>workflow-process-service</cq:lastReplicatedBy_publish>
         <cq:isDelivered>true</cq:isDelivered>
         <cq:lastReplicated>2024-02-09T22:07:12.166Z</cq:lastReplicated>
         <cq:lastReplicatedBy_scene7>workflow-process-service</cq:lastReplicatedBy_scene7>
         <cq:lastReplicated_scene7>2024-02-09T22:07:12.166Z</cq:lastReplicated_scene7>
         <tiff:ImageLength>36</tiff:ImageLength>
         <tiff:ImageWidth>36</tiff:ImageWidth>
      </rdf:Description>
   </rdf:RDF>
</x:xmpmeta>
                                                                                                    
                                                                                                    
                                                                                                    
                                                                                                    
                                                                                                    
                                                                                                    
                                                                                                    
                                                                                                    
                                                                                                    
                                                                                                    
                                 
<?xpacket end="w"?></metadata>
<g>
    <path d="M31,9.38H28.62V5A.61.61,0,0,0,28,4.38H25a.61.61,0,0,0-.62.62V9.38H22.62V5A.61.61,0,0,0,22,4.38H19a.61.61,0,0,0-.62.62V9.38H16a.61.61,0,0,0-.62.62v7.38H10.62V6A.61.61,0,0,0,10,5.38H7A.61.61,0,0,0,6.38,6V17.38H5a.61.61,0,0,0-.62.62V31a.61.61,0,0,0,.62.62H31a.61.61,0,0,0,.62-.62V10A.61.61,0,0,0,31,9.38ZM25.62,5.62h1.76V9.38H25.62Zm-6,0h1.76V9.38H19.62Zm10.76,5v6.76H16.62V10.62Zm-22.76-4H9.38V17.38H7.62Zm15,23.76V24.62h2.76v5.76Zm7.76-11.76V30.38H26.62V24a.61.61,0,0,0-.62-.62H22a.61.61,0,0,0-.62.62v6.38H5.62V18.62Z"/>
    <path d="M7,4.62h3a.62.62,0,1,0,0-1.24H7A.62.62,0,0,0,7,4.62Z"/>
  </g>
</svg>
